src/lib/packages/icons/src/assets/line/drag-vertical.svg

<svg xmlns="http://www.w3.org/2000/svg" width="24" height="24" fill="none"><path fill="currentColor" d="M8 21.75A2.752 2.752 0 0 1 5.25 19 2.752 2.752 0 0 1 8 16.25 2.752 2.752 0 0 1 10.75 19 2.752 2.752 0 0 1 8 21.75Zm0-4c-.689 0-1.25.561-1.25 1.25s.561 1.25 1.25 1.25 1.25-.561 1.25-1.25-.561-1.25-1.25-1.25Zm0-3A2.752 2.752 0 0 1 5.25 12 2.752 2.752 0 0 1 8 9.25 2.752 2.752 0 0 1 10.75 12 2.752 2.752 0 0 1 8 14.75Zm0-4c-.689 0-1.25.561-1.25 1.25s.561 1.25 1.25 1.25 1.25-.561 1.25-1.25-.561-1.25-1.25-1.25Zm0-3A2.752 2.752 0 0 1 5.25 5 2.752 2.752 0 0 1 8 2.25 2.752 2.752 0 0 1 10.75 5 2.752 2.752 0 0 1 8 7.75Zm0-4c-.689 0-1.25.561-1.25 1.25S7.311 6.25 8 6.25 9.25 5.689 9.25 5 8.689 3.75 8 3.75Zm8 18A2.752 2.752 0 0 1 13.25 19 2.752 2.752 0 0 1 16 16.25 2.752 2.752 0 0 1 18.75 19 2.752 2.752 0 0 1 16 21.75Zm0-4c-.689 0-1.25.561-1.25 1.25s.561 1.25 1.25 1.25 1.25-.561 1.25-1.25-.561-1.25-1.25-1.25Zm0-3A2.752 2.752 0 0 1 13.25 12 2.752 2.752 0 0 1 16 9.25 2.752 2.752 0 0 1 18.75 12 2.752 2.752 0 0 1 16 14.75Zm0-4c-.689 0-1.25.561-1.25 1.25s.561 1.25 1.25 1.25 1.25-.561 1.25-1.25-.561-1.25-1.25-1.25Zm0-3A2.752 2.752 0 0 1 13.25 5 2.752 2.752 0 0 1 16 2.25 2.752 2.752 0 0 1 18.75 5 2.752 2.752 0 0 1 16 7.75Zm0-4c-.689 0-1.25.561-1.25 1.25s.561 1.25 1.25 1.25 1.25-.561 1.25-1.25-.561-1.25-1.25-1.25Z"/></svg>

<svg width="24" height="24" viewBox="0 0 24 24" fill="none" xmlns="http://www.w3.org/2000/svg">
<path d="M8 21.75C6.483 21.75 5.25 20.517 5.25 19C5.25 17.483 6.483 16.25 8 16.25C9.517 16.25 10.75 17.483 10.75 19C10.75 20.517 9.517 21.75 8 21.75ZM8 17.75C7.311 17.75 6.75 18.311 6.75 19C6.75 19.689 7.311 20.25 8 20.25C8.689 20.25 9.25 19.689 9.25 19C9.25 18.311 8.689 17.75 8 17.75ZM8 14.75C6.483 14.75 5.25 13.517 5.25 12C5.25 10.483 6.483 9.25 8 9.25C9.517 9.25 10.75 10.483 10.75 12C10.75 13.517 9.517 14.75 8 14.75ZM8 10.75C7.311 10.75 6.75 11.311 6.75 12C6.75 12.689 7.311 13.25 8 13.25C8.689 13.25 9.25 12.689 9.25 12C9.25 11.311 8.689 10.75 8 10.75ZM8 7.75C6.483 7.75 5.25 6.517 5.25 5C5.25 3.483 6.483 2.25 8 2.25C9.517 2.25 10.75 3.483 10.75 5C10.75 6.517 9.517 7.75 8 7.75ZM8 3.75C7.311 3.75 6.75 4.311 6.75 5C6.75 5.689 7.311 6.25 8 6.25C8.689 6.25 9.25 5.689 9.25 5C9.25 4.311 8.689 3.75 8 3.75ZM16 21.75C14.483 21.75 13.25 20.517 13.25 19C13.25 17.483 14.483 16.25 16 16.25C17.517 16.25 18.75 17.483 18.75 19C18.75 20.517 17.517 21.75 16 21.75ZM16 17.75C15.311 17.75 14.75 18.311 14.75 19C14.75 19.689 15.311 20.25 16 20.25C16.689 20.25 17.25 19.689 17.25 19C17.25 18.311 16.689 17.75 16 17.75ZM16 14.75C14.483 14.75 13.25 13.517 13.25 12C13.25 10.483 14.483 9.25 16 9.25C17.517 9.25 18.75 10.483 18.75 12C18.75 13.517 17.517 14.75 16 14.75ZM16 10.75C15.311 10.75 14.75 11.311 14.75 12C14.75 12.689 15.311 13.25 16 13.25C16.689 13.25 17.25 12.689 17.25 12C17.25 11.311 16.689 10.75 16 10.75ZM16 7.75C14.483 7.75 13.25 6.517 13.25 5C13.25 3.483 14.483 2.25 16 2.25C17.517 2.25 18.75 3.483 18.75 5C18.75 6.517 17.517 7.75 16 7.75ZM16 3.75C15.311 3.75 14.75 4.311 14.75 5C14.75 5.689 15.311 6.25 16 6.25C16.689 6.25 17.25 5.689 17.25 5C17.25 4.311 16.689 3.75 16 3.75Z" fill="currentColor"/>
</svg>
